dist/assets/image/logo.svg

<svg width="194" height="26" viewBox="0 0 194 26" fill="none" xmlns="http://www.w3.org/2000/svg">
<path d="M17.6924 21H14.8027V10.5371H14.7168L10.5059 20.8496H8.46484L4.25391 10.5371H4.16797V21H1.27832V5.49902H5.03809L9.44238 16.4883H9.52832L13.9326 5.49902H17.6924V21Z" fill="white"/>
<path d="M30.54 21H20.2705V5.49902H30.54V8.17383H23.5146V11.9121H30.1426V14.4043H23.5146V18.3145H30.54V21Z" fill="white"/>
<path d="M36.6416 21V8.17383H32.1084V5.49902H44.4297V8.17383H39.8857V21H36.6416Z" fill="white"/>
<path d="M56.4502 21V14.4688H49.4678V21H46.2236V5.49902H49.4678V11.7939H56.4502V5.49902H59.6943V21H56.4502Z" fill="white"/>
<path d="M72.542 21H62.2725V5.49902H72.542V8.17383H65.5166V11.9121H72.1445V14.4043H65.5166V18.3145H72.542V21Z" fill="white"/>
<path d="M80.8564 5.49902C83.1911 5.49902 85.0029 6.16504 86.292 7.49707C87.5954 8.84342 88.2471 10.7412 88.2471 13.1904C88.2471 15.6468 87.5954 17.5625 86.292 18.9375C84.9958 20.3125 83.1839 21 80.8564 21H74.8838V5.49902H80.8564ZM78.1279 18.3145H80.4697C81.9235 18.3145 83.0299 17.8812 83.7891 17.0146C84.5553 16.141 84.9385 14.8698 84.9385 13.2012C84.9385 11.5827 84.5518 10.3402 83.7783 9.47363C83.0049 8.6071 81.902 8.17383 80.4697 8.17383H78.1279V18.3145Z" fill="white"/>
<path d="M90.9648 21.1289C90.485 21.1289 90.0768 20.9606 89.7402 20.624C89.4036 20.2874 89.2354 19.8792 89.2354 19.3994C89.2354 18.9124 89.4036 18.5042 89.7402 18.1748C90.0768 17.8382 90.485 17.6699 90.9648 17.6699C91.4518 17.6699 91.86 17.8382 92.1895 18.1748C92.526 18.5042 92.6943 18.9124 92.6943 19.3994C92.6943 19.8792 92.526 20.2874 92.1895 20.624C91.8529 20.9606 91.4447 21.1289 90.9648 21.1289Z" fill="white"/>
<path d="M111.729 21H108.84V10.5371H108.754L104.543 20.8496H102.502L98.291 10.5371H98.2051V21H95.3154V5.49902H99.0752L103.479 16.4883H103.565L107.97 5.49902H111.729V21Z" fill="white"/>
<path d="M117.552 15.1992C117.552 16.209 117.835 17.0039 118.4 17.584C118.973 18.1855 119.775 18.4863 120.807 18.4863C121.831 18.4863 122.629 18.1855 123.202 17.584C123.768 17.0039 124.051 16.209 124.051 15.1992V5.49902H127.295V15.5215C127.295 17.2402 126.708 18.626 125.533 19.6787C124.352 20.7386 122.776 21.2686 120.807 21.2686C118.83 21.2686 117.251 20.7386 116.069 19.6787C114.895 18.626 114.308 17.2402 114.308 15.5215V5.49902H117.552V15.1992Z" fill="white"/>
<path d="M132.43 16.585C132.501 17.2152 132.838 17.7272 133.439 18.1211C134.034 18.5078 134.764 18.7012 135.631 18.7012C136.49 18.7012 137.192 18.515 137.736 18.1426C138.273 17.7773 138.542 17.3083 138.542 16.7354C138.542 16.234 138.341 15.8294 137.94 15.5215C137.539 15.2135 136.87 14.9557 135.932 14.748L133.912 14.3076C131.069 13.6989 129.647 12.2559 129.647 9.97852C129.647 8.56055 130.202 7.41113 131.312 6.53027C132.415 5.66374 133.837 5.23047 135.577 5.23047C137.368 5.23047 138.8 5.65658 139.874 6.50879C140.934 7.35384 141.478 8.48177 141.507 9.89258H138.467C138.417 9.24089 138.127 8.72526 137.597 8.3457C137.074 7.97331 136.404 7.78711 135.588 7.78711C134.786 7.78711 134.141 7.96257 133.654 8.31348C133.16 8.66439 132.913 9.1263 132.913 9.69922C132.913 10.1719 133.114 10.5586 133.515 10.8594C133.909 11.1458 134.553 11.3929 135.448 11.6006L137.328 11.998C138.882 12.3275 140.014 12.8431 140.723 13.5449C141.432 14.2396 141.786 15.1777 141.786 16.3594C141.786 17.8633 141.22 19.0557 140.089 19.9365C138.957 20.8245 137.428 21.2686 135.502 21.2686C133.633 21.2686 132.147 20.8532 131.044 20.0225C129.934 19.1846 129.354 18.0387 129.304 16.585H132.43Z" fill="white"/>
<path d="M143.784 21V5.49902H147.028V21H143.784Z" fill="white"/>
<path d="M156.46 21.2686C154.197 21.2686 152.41 20.556 151.1 19.1309C149.782 17.6986 149.123 15.7363 149.123 13.2441C149.123 10.7591 149.785 8.80046 151.11 7.36816C152.421 5.94303 154.204 5.23047 156.46 5.23047C158.336 5.23047 159.908 5.76758 161.176 6.8418C162.451 7.93034 163.149 9.33756 163.271 11.0635H160.112C159.962 10.111 159.554 9.34831 158.888 8.77539C158.215 8.20247 157.405 7.91602 156.46 7.91602C155.235 7.91602 154.258 8.39225 153.527 9.34473C152.797 10.3115 152.432 11.6077 152.432 13.2334C152.432 14.8877 152.793 16.1911 153.517 17.1436C154.24 18.1032 155.225 18.583 156.471 18.583C157.43 18.583 158.236 18.318 158.888 17.7881C159.539 17.2581 159.951 16.5348 160.123 15.6182H163.281C163.102 17.3441 162.397 18.7191 161.165 19.7432C159.933 20.7601 158.365 21.2686 156.46 21.2686Z" fill="white"/>
<path fill-rule="evenodd" clip-rule="evenodd" d="M179.565 3.59397C180.833 3.58536 182.09 3.82719 183.263 4.30561C184.44 4.78498 185.509 5.4924 186.411 6.3871C187.312 7.28179 188.028 8.34607 188.516 9.51858C189.004 10.6911 189.256 11.9486 189.256 13.2188V18.25C189.256 18.8965 188.999 19.5165 188.542 19.9736C188.085 20.4307 187.465 20.6875 186.818 20.6875H185.381C184.734 20.6875 184.114 20.4307 183.657 19.9736C183.2 19.5165 182.943 18.8965 182.943 18.25V14.6563C182.943 14.0098 183.2 13.3898 183.657 12.9327C184.114 12.4756 184.734 12.2188 185.381 12.2188H187.19C187.102 11.5564 186.928 10.9069 186.67 10.2874C186.283 9.35857 185.716 8.51545 185.002 7.80666C184.288 7.09788 183.44 6.53745 182.509 6.15769C181.577 5.77793 180.579 5.58634 179.573 5.59397H179.558C178.552 5.58634 177.554 5.77793 176.622 6.15769C175.69 6.53745 174.843 7.09788 174.129 7.80666C173.415 8.51545 172.848 9.35857 172.461 10.2874C172.203 10.9069 172.028 11.5564 171.941 12.2188H173.75C174.396 12.2188 175.016 12.4756 175.474 12.9327C175.931 13.3898 176.187 14.0098 176.187 14.6563V18.25C176.187 18.8965 175.931 19.5165 175.474 19.9736C175.016 20.4307 174.396 20.6875 173.75 20.6875H172.312C171.666 20.6875 171.046 20.4307 170.589 19.9736C170.132 19.5165 169.875 18.8965 169.875 18.25V13.2188C169.875 11.9486 170.126 10.6911 170.615 9.51858C171.103 8.34607 171.818 7.28179 172.72 6.3871C173.621 5.4924 174.691 4.78498 175.867 4.30561C177.041 3.82719 178.298 3.58536 179.565 3.59397ZM171.875 14.2188V18.25C171.875 18.366 171.921 18.4773 172.003 18.5594C172.085 18.6414 172.196 18.6875 172.312 18.6875H173.75C173.866 18.6875 173.977 18.6414 174.059 18.5594C174.141 18.4773 174.187 18.366 174.187 18.25V14.6563C174.187 14.5402 174.141 14.4289 174.059 14.3469C173.977 14.2648 173.866 14.2188 173.75 14.2188H171.875ZM187.256 14.2188H185.381C185.265 14.2188 185.153 14.2648 185.071 14.3469C184.989 14.4289 184.943 14.5402 184.943 14.6563V18.25C184.943 18.366 184.989 18.4773 185.071 18.5594C185.153 18.6414 185.265 18.6875 185.381 18.6875H186.818C186.934 18.6875 187.046 18.6414 187.128 18.5594C187.21 18.4773 187.256 18.366 187.256 18.25V14.2188ZM179.565 4.594V4.59403V4.594Z" fill="white"/>
</svg>

<svg width="194" height="26" fill="none" xmlns="http://www.w3.org/2000/svg"><path d="M17.692 21h-2.89V10.537h-.085L10.506 20.85H8.465L4.254 10.537h-.086V21h-2.89V5.499h3.76l4.404 10.99h.086l4.405-10.99h3.76V21Zm12.848 0H20.27V5.499h10.27v2.675h-7.025v3.738h6.628v2.492h-6.628v3.91h7.025V21Zm6.102 0V8.174h-4.534V5.499H44.43v2.675h-4.544V21h-3.244Zm19.808 0v-6.531h-6.982V21h-3.244V5.499h3.244v6.295h6.982V5.499h3.244V21H56.45Zm16.092 0h-10.27V5.499h10.27v2.675h-7.025v3.738h6.627v2.492h-6.627v3.91h7.025V21Zm8.314-15.501c2.335 0 4.147.666 5.436 1.998 1.303 1.346 1.955 3.244 1.955 5.693 0 2.457-.652 4.373-1.955 5.748C84.996 20.313 83.184 21 80.856 21h-5.972V5.499h5.972Zm-2.728 12.816h2.342c1.454 0 2.56-.434 3.32-1.3.765-.874 1.148-2.145 1.148-3.814 0-1.618-.386-2.86-1.16-3.727-.773-.867-1.876-1.3-3.308-1.3h-2.342v10.14Zm12.837 2.814c-.48 0-.888-.168-1.225-.505a1.667 1.667 0 0 1-.505-1.225c0-.487.169-.895.505-1.224a1.668 1.668 0 0 1 1.225-.505c.487 0 .895.168 1.224.505.337.33.505.737.505 1.224 0 .48-.168.888-.505 1.225a1.668 1.668 0 0 1-1.224.505ZM111.729 21h-2.889V10.537h-.086l-4.211 10.313h-2.041l-4.211-10.313h-.086V21h-2.89V5.499h3.76l4.404 10.99h.086l4.405-10.99h3.759V21Zm5.823-5.8c0 1.009.283 1.804.848 2.384.573.602 1.375.902 2.407.902 1.024 0 1.822-.3 2.395-.902.566-.58.849-1.375.849-2.385V5.5h3.244v10.023c0 1.718-.587 3.104-1.762 4.157-1.181 1.06-2.757 1.59-4.726 1.59-1.977 0-3.556-.53-4.738-1.59-1.174-1.053-1.761-2.439-1.761-4.157V5.498h3.244v9.7Zm14.878 1.385c.071.63.408 1.142 1.009 1.536.595.387 1.325.58 2.192.58.859 0 1.561-.186 2.105-.558.537-.366.806-.835.806-1.408 0-.501-.201-.906-.602-1.213-.401-.309-1.07-.566-2.008-.774l-2.02-.44c-2.843-.61-4.265-2.052-4.265-4.33 0-1.417.555-2.567 1.665-3.448 1.103-.866 2.525-1.3 4.265-1.3 1.791 0 3.223.427 4.297 1.279 1.06.845 1.604 1.973 1.633 3.384h-3.04a2.006 2.006 0 0 0-.87-1.547c-.523-.373-1.193-.559-2.009-.559-.802 0-1.447.176-1.934.526-.494.351-.741.813-.741 1.386 0 .473.201.86.602 1.16.394.287 1.038.534 1.933.742l1.88.397c1.554.33 2.686.845 3.395 1.547.709.695 1.063 1.633 1.063 2.814 0 1.504-.566 2.697-1.697 3.577-1.132.889-2.661 1.333-4.587 1.333-1.869 0-3.355-.416-4.458-1.246-1.11-.838-1.69-1.984-1.74-3.438h3.126ZM143.784 21V5.499h3.244V21h-3.244Zm12.676.269c-2.263 0-4.05-.713-5.36-2.138-1.318-1.432-1.977-3.395-1.977-5.887 0-2.485.662-4.444 1.987-5.876 1.311-1.425 3.094-2.138 5.35-2.138 1.876 0 3.448.538 4.716 1.612 1.275 1.088 1.973 2.496 2.095 4.221h-3.159c-.15-.952-.558-1.715-1.224-2.288-.673-.573-1.483-.859-2.428-.859-1.225 0-2.202.476-2.933 1.429-.73.966-1.095 2.263-1.095 3.888 0 1.655.361 2.958 1.085 3.91.723.96 1.708 1.44 2.954 1.44.959 0 1.765-.265 2.417-.795.651-.53 1.063-1.253 1.235-2.17h3.158c-.179 1.726-.884 3.101-2.116 4.125-1.232 1.017-2.8 1.526-4.705 1.526Z" fill="#fff"/><path fill-rule="evenodd" clip-rule="evenodd" d="M179.565 3.594a9.62 9.62 0 0 1 6.846 2.793 9.628 9.628 0 0 1 2.845 6.832v5.031a2.438 2.438 0 0 1-2.438 2.438h-1.437a2.437 2.437 0 0 1-2.438-2.438v-3.594a2.438 2.438 0 0 1 2.438-2.437h1.809a7.64 7.64 0 0 0-2.188-4.412 7.63 7.63 0 0 0-5.429-2.213h-.015a7.628 7.628 0 0 0-7.617 6.625h1.809a2.437 2.437 0 0 1 2.437 2.438v3.593a2.437 2.437 0 0 1-2.437 2.438h-1.438a2.437 2.437 0 0 1-2.437-2.438v-5.031c0-1.27.251-2.528.74-3.7a9.612 9.612 0 0 1 5.252-5.213 9.627 9.627 0 0 1 3.698-.712Zm-7.69 10.625v4.031a.438.438 0 0 0 .437.438h1.438a.437.437 0 0 0 .437-.438v-3.594a.437.437 0 0 0-.437-.437h-1.875Zm15.381 0h-1.875a.439.439 0 0 0-.438.437v3.594a.438.438 0 0 0 .438.438h1.437a.44.44 0 0 0 .438-.438v-4.031Zm-7.691-9.625Z" fill="#fff"/></svg>
